fs/pause_settings_20_filled.svg

<svg viewBox="0 0 20 20" fill="none" xmlns="http://www.w3.org/2000/svg" height="1em" width="1em">
  <path d="M12 3.5C12 2.67157 12.6716 2 13.5 2H15.5C16.3284 2 17 2.67157 17 3.5V9.59971C16.2499 9.21628 15.4002 9 14.5 9C13.5998 9 12.7501 9.21628 12 9.59971V3.5ZM3 3.5C3 2.67157 3.67157 2 4.5 2H6.5C7.32843 2 8 2.67157 8 3.5V16.5C8 17.3284 7.32843 18 6.5 18H4.5C3.67157 18 3 17.3284 3 16.5V3.5ZM12.0652 11.4421C12.3685 12.5232 11.7225 13.6421 10.6346 13.92L10.1735 14.0378C10.1586 14.1898 10.1509 14.3439 10.1509 14.5C10.1509 14.6876 10.162 14.8726 10.1835 15.0542L10.5331 15.1369C11.6525 15.4016 12.3185 16.5537 11.9892 17.6558L11.8628 18.0786C12.12 18.2819 12.3998 18.4561 12.6975 18.5965L13.0225 18.2524C13.8123 17.4161 15.1431 17.4168 15.932 18.2539L16.2694 18.6119C16.5618 18.477 16.8372 18.3096 17.0912 18.1143L16.9351 17.5576C16.6318 16.4765 17.2778 15.3576 18.3657 15.0797L18.8263 14.962C18.8412 14.8101 18.8489 14.656 18.8489 14.5C18.8489 14.3122 18.8378 14.1271 18.8162 13.9454L18.4672 13.8628C17.3478 13.5982 16.6818 12.446 17.0111 11.3439L17.1373 10.9216C16.8801 10.7183 16.6003 10.544 16.3025 10.4035L15.9778 10.7473C15.188 11.5836 13.8572 11.5829 13.0683 10.7458L12.7309 10.3878C12.4385 10.5227 12.1631 10.69 11.909 10.8853L12.0652 11.4421ZM14.4999 15.5C13.9476 15.5 13.4999 15.0523 13.4999 14.5C13.4999 13.9477 13.9476 13.5 14.4999 13.5C15.0522 13.5 15.4999 13.9477 15.4999 14.5C15.4999 15.0523 15.0522 15.5 14.4999 15.5Z" fill="#212121"/>
</svg>

<svg viewBox="0 0 20 20" fill="none" xmlns="http://www.w3.org/2000/svg" height="1em" width="1em">
  <path d="M12 3.5A1.5 1.5 0 0 1 13.5 2h2A1.5 1.5 0 0 1 17 3.5v6.1a5.47 5.47 0 0 0-2.5-.6c-.9 0-1.75.216-2.5.6V3.5Zm-9 0A1.5 1.5 0 0 1 4.5 2h2A1.5 1.5 0 0 1 8 3.5v13A1.5 1.5 0 0 1 6.5 18h-2A1.5 1.5 0 0 1 3 16.5v-13Zm9.065 7.942a2 2 0 0 1-1.43 2.478l-.461.118a4.735 4.735 0 0 0 .01 1.016l.35.083a2 2 0 0 1 1.455 2.519l-.126.423c.257.203.537.377.835.517l.325-.344a2 2 0 0 1 2.909.002l.337.358c.293-.135.568-.302.822-.498l-.156-.556a2 2 0 0 1 1.43-2.478l.461-.118a4.731 4.731 0 0 0-.01-1.017l-.349-.082a2 2 0 0 1-1.456-2.52l.126-.421a4.318 4.318 0 0 0-.835-.519l-.324.344a2 2 0 0 1-2.91-.001l-.337-.358a4.316 4.316 0 0 0-.822.497l.156.557ZM14.5 15.5a1 1 0 1 1 0-2 1 1 0 0 1 0 2Z" fill="#212121"/>
</svg>
